X:185
T:Welcome From The Havanna THO3.185
O:England;London
M:C|
L:1/8
Z:vmp. Peter Dunk 2011.from a transcription by Fynn Titford-Mock 2006-9
B:Thompson's Compleat Collection of 200 Favourite Country Dances Vol. III.1765-72
Q:1/2=75
K:D
F/G/|A>BA>F ED (E/F/G)|A>BAF dBAF|A>BA>F ED Ea/f/|edef d3:|
f/g/|agfe dcBA|B>cdF EFEF|GABc defe|dBAF D3 f/g/|
af de/f/ ge cd/e/|fd Bc/d/ ecAc|\
defe defe|dB"_the last part once"AF D3|]

